assets/svg/linkedin.svg

<svg fill="none" viewBox="0 0 45 45" xmlns="http://www.w3.org/2000/svg">
<path d="m41.401 0h-37.557c-2.0513 0-3.8448 1.477-3.8448 3.5048v37.639c0 2.0396 1.7934 3.8565 3.8448 3.8565h37.545c2.0631 0 3.6103-1.8286 3.6103-3.8565v-37.639c0.0118-2.0279-1.5472-3.5048-3.5986-3.5048zm-27.452 37.51h-6.447v-20.044h6.447v20.044zm-3.0008-23.092h-0.0468c-2.0631 0-3.3994-1.5355-3.3994-3.4579 0-1.9576 1.3714-3.458 3.4814-3.458 2.1099 0 3.3993 1.4887 3.4462 3.458 0 1.9224-1.3363 3.4579-3.4814 3.4579zm26.562 23.092h-6.447v-10.96c0-2.6257-0.9377-4.4191-3.2703-4.4191-1.7818 0-2.8367 1.2073-3.3056 2.3795-0.1758 0.422-0.2227 0.9963-0.2227 1.5824v11.417h-6.447v-20.044h6.447v2.7898c0.9377-1.3363 2.403-3.2587 5.814-3.2587 4.2316 0 7.4316 2.7898 7.4316 8.8031v11.71z" fill="#F6F5F5"/>
</svg>

<svg xmlns="http://www.w3.org/2000/svg" fill="none" viewBox="0 0 45 45"  xmlns:v="https://vecta.io/nano"><path d="M41.401 0H3.844C1.793 0-.001 1.477-.001 3.505v37.639c0 2.04 1.793 3.856 3.845 3.856h37.545c2.063 0 3.61-1.829 3.61-3.856V3.505C45.011 1.477 43.452 0 41.401 0zM13.949 37.51H7.502V17.466h6.447V37.51zm-3.001-23.092h-.047c-2.063 0-3.399-1.536-3.399-3.458 0-1.958 1.371-3.458 3.481-3.458s3.399 1.489 3.446 3.458c0 1.922-1.336 3.458-3.481 3.458zM37.51 37.51h-6.447V26.55c0-2.626-.938-4.419-3.27-4.419-1.782 0-2.837 1.207-3.306 2.38-.176.422-.223.996-.223 1.582V37.51h-6.447V17.466h6.447v2.79c.938-1.336 2.403-3.259 5.814-3.259 4.232 0 7.432 2.79 7.432 8.803v11.71z" fill="#000"/></svg>
